src/images/Sass.svg

<svg width="97" height="97" viewBox="0 0 97 97" fill="none" xmlns="http://www.w3.org/2000/svg">
<path d="M83.495 53.8906C80.1038 53.9096 77.1672 54.7233 74.7043 55.9345C73.795 54.1366 72.8856 52.5659 72.734 51.3926C72.5635 50.03 72.3551 49.1974 72.5635 47.5699C72.7719 45.9424 73.7192 43.6336 73.7192 43.4443C73.7002 43.274 73.5108 42.4413 71.5594 42.4224C69.608 42.4035 67.9219 42.8009 67.7325 43.3119C67.543 43.8228 67.1641 44.9961 66.9178 46.2073C66.5768 47.9862 63.0151 54.288 60.9879 57.5998C60.3248 56.313 59.7565 55.1775 59.6428 54.2691C59.4723 52.9066 59.2639 52.0739 59.4723 50.4464C59.6807 48.8189 60.628 46.5101 60.628 46.3208C60.609 46.1505 60.4196 45.3178 58.4682 45.2989C56.5168 45.28 54.8307 45.6774 54.6412 46.1884C54.4518 46.6993 54.2434 47.9105 53.8266 49.0838C53.4287 50.2571 48.6924 60.7791 47.461 63.5232C46.8358 64.9236 46.2864 66.0401 45.8885 66.7971C45.4907 67.5541 45.8696 66.8539 45.8317 66.9296C45.4907 67.573 45.3012 67.9326 45.3012 67.9326V67.9515C45.036 68.4246 44.7518 68.8788 44.6192 68.8788C44.5245 68.8788 44.335 67.6109 44.6571 65.8698C45.358 62.2174 47.0631 56.5211 47.0442 56.313C47.0442 56.2183 47.3662 55.2153 45.9454 54.7044C44.5623 54.1934 44.0698 55.045 43.9561 55.045C43.8424 55.045 43.7477 55.3478 43.7477 55.3478C43.7477 55.3478 45.2823 48.9324 40.8112 48.9324C38.0073 48.9324 34.1424 51.9793 32.2289 54.7612C31.0164 55.4235 28.4399 56.8239 25.7118 58.319C24.6698 58.8867 23.5899 59.4923 22.5668 60.0411L22.3584 59.814C16.9401 54.042 6.91801 49.9543 7.3348 42.1953C7.48637 39.3756 8.47152 31.9382 26.5832 22.9302C41.4174 15.5497 53.2961 17.5746 55.3612 22.0786C58.2977 28.5129 49.0145 40.4732 33.593 42.1953C27.72 42.8577 24.6319 40.5867 23.8551 39.7351C23.0405 38.8457 22.9268 38.8078 22.6237 38.9781C22.1311 39.2431 22.4342 40.0379 22.6237 40.511C23.0784 41.7033 24.9729 43.8228 28.1936 44.8826C31.0164 45.8099 37.9125 46.3208 46.2485 43.1037C55.5885 39.4891 62.8825 29.4591 60.7416 21.0756C58.5629 12.5407 44.3918 9.73984 30.9975 14.4899C23.0215 17.3286 14.3825 21.7569 8.1684 27.5667C0.779726 34.4552 -0.394884 40.4732 0.0976943 42.9712C1.82172 51.8846 14.1172 57.6945 19.043 61.9903C18.7967 62.1228 18.5694 62.2552 18.361 62.3688C15.8981 63.58 6.52016 68.4814 4.17094 73.6667C1.51859 79.5333 4.58773 83.7534 6.63383 84.3212C12.9616 86.0812 19.4409 82.9208 22.9457 77.7165C26.4317 72.5123 26.0149 65.7563 24.4045 62.6716L24.3477 62.558L26.2801 61.4226C27.5305 60.6845 28.7619 60.0032 29.8418 59.4166C29.2356 61.063 28.7998 63.0122 28.5725 65.8509C28.3073 69.1816 29.6713 73.4964 31.4711 75.1996C32.2668 75.9376 33.2141 75.9566 33.8014 75.9566C35.8854 75.9566 36.8327 74.2344 37.8746 72.1717C39.1629 69.6547 40.2996 66.7403 40.2996 66.7403C40.2996 66.7403 38.8787 74.6319 42.7625 74.6319C44.1834 74.6319 45.6043 72.7962 46.2485 71.85V71.8689C46.2485 71.8689 46.2864 71.8121 46.3621 71.6796C46.5137 71.4525 46.5895 71.3201 46.5895 71.3201V71.2822C47.1579 70.2982 48.4272 68.0461 50.3217 64.318C52.7657 59.5112 55.1149 53.4932 55.1149 53.4932C55.1149 53.4932 55.3422 54.9693 56.0432 57.3917C56.46 58.8299 57.3694 60.4007 58.0704 61.9335C57.502 62.7284 57.161 63.1826 57.161 63.1826L57.1799 63.2015C56.7252 63.8071 56.2137 64.4505 55.6832 65.0939C53.7508 67.4027 51.4395 70.0332 51.1364 70.7902C50.7764 71.6796 50.8522 72.342 51.5532 72.8719C52.0647 73.2504 52.9741 73.3261 53.9403 73.2504C55.6832 73.1368 56.8957 72.7016 57.502 72.4366C58.4493 72.096 59.5291 71.585 60.5711 70.828C62.4657 69.4276 63.6213 67.4406 63.5077 64.7911C63.4508 63.3339 62.9772 61.8957 62.3899 60.5331C62.5604 60.2871 62.7309 60.0411 62.9014 59.7761C65.8948 55.4046 68.2061 50.5978 68.2061 50.5978C68.2061 50.5978 68.4334 52.0739 69.1344 54.4962C69.4944 55.7263 70.2143 57.0699 70.8584 58.3947C68.0545 60.6845 66.2926 63.3339 65.6864 65.075C64.5686 68.2922 65.4401 69.7493 67.0883 70.09C67.8272 70.2414 68.8881 69.9007 69.6838 69.5601C70.669 69.2384 71.8625 68.6896 72.9614 67.8758C74.8559 66.4754 76.6746 64.5262 76.5799 61.8957C76.5231 60.6845 76.201 59.4923 75.7653 58.3568C78.1524 57.3727 81.2405 56.805 85.1621 57.2781C93.5928 58.2622 95.26 63.5232 94.9379 65.7184C94.6159 67.9137 92.8539 69.1248 92.2666 69.5033C91.6793 69.8629 91.4899 69.9954 91.5467 70.2603C91.6225 70.6577 91.8877 70.6388 92.3993 70.5631C93.1002 70.4496 96.8325 68.7653 96.984 64.7154C97.2114 59.5112 92.2666 53.8339 83.495 53.8906ZM18.4746 75.7862C15.6897 78.8331 11.768 79.9875 10.1008 79.0034C8.30101 77.9626 9.00199 73.4775 12.4311 70.2414C14.5151 68.2732 17.2243 66.4565 19.0051 65.3399C19.403 65.0939 20.0092 64.7344 20.7291 64.2991C20.8428 64.2234 20.9186 64.1855 20.9186 64.1855C21.0512 64.1098 21.2028 64.0152 21.3543 63.9206C22.6237 68.5382 21.4112 72.588 18.4746 75.7862ZM38.8409 61.9525C37.8746 64.318 35.8286 70.3928 34.5971 70.0521C33.5362 69.7683 32.892 65.1696 34.3887 60.6277C35.1465 58.3379 36.7569 55.6128 37.7041 54.553C39.2387 52.8498 40.9059 52.2821 41.3227 52.9823C41.8153 53.8906 39.4471 60.4764 38.8409 61.9525ZM55.6454 69.9764C55.2286 70.1846 54.8496 70.336 54.6791 70.2225C54.5465 70.1468 54.8496 69.8629 54.8496 69.8629C54.8496 69.8629 56.9526 67.6109 57.7862 66.57C58.2598 65.9644 58.8282 65.2642 59.4344 64.4694V64.6965C59.4344 67.4216 56.82 69.2384 55.6454 69.9764ZM68.6039 67.0242C68.3008 66.7971 68.3387 66.0969 69.3618 63.9017C69.7596 63.0312 70.669 61.574 72.2414 60.1925C72.4309 60.7602 72.5446 61.309 72.5256 61.82C72.5067 65.2264 70.0817 66.4943 68.6039 67.0242Z" fill="url(#paint0_linear_24_974)"/>
<defs>
<linearGradient id="paint0_linear_24_974" x1="8.51635e-06" y1="84.8112" x2="89.0769" y2="22.1837" gradientUnits="userSpaceOnUse">
<stop offset="0.00833321" stop-color="#5C03BC"/>
<stop offset="0.53125" stop-color="#E536AB"/>
<stop offset="0.898958" stop-color="#F4E5F0"/>
</linearGradient>
</defs>
</svg>

<svg xmlns="http://www.w3.org/2000/svg" width="97" height="97" fill="none"><path fill="url(#a)" d="M83.495 53.89c-3.391.02-6.328.833-8.79 2.044-.91-1.797-1.82-3.368-1.971-4.541-.17-1.363-.379-2.196-.17-3.823.208-1.628 1.155-3.936 1.155-4.126-.019-.17-.208-1.003-2.16-1.022-1.951-.018-3.637.379-3.826.89-.19.51-.569 1.684-.815 2.895-.341 1.78-3.903 8.081-5.93 11.393-.663-1.287-1.231-2.422-1.345-3.33-.17-1.363-.38-2.196-.17-3.824.208-1.627 1.155-3.936 1.155-4.125-.019-.17-.208-1.003-2.16-1.022-1.951-.019-3.637.378-3.827.89-.19.51-.398 1.721-.814 2.895-.398 1.173-5.135 11.695-6.366 14.44a58.524 58.524 0 0 1-1.572 3.273c-.398.757-.02.057-.057.133-.341.643-.53 1.003-.53 1.003v.018c-.266.474-.55.928-.683.928-.094 0-.284-1.268.038-3.01.701-3.652 2.406-9.348 2.387-9.556 0-.095.322-1.098-1.099-1.609-1.383-.51-1.875.341-1.989.341-.114 0-.208.303-.208.303s1.534-6.416-2.937-6.416c-2.804 0-6.669 3.047-8.582 5.83-1.213.661-3.79 2.062-6.517 3.557-1.042.568-2.122 1.173-3.145 1.722l-.209-.227c-5.418-5.772-15.44-9.86-15.023-17.619.151-2.82 1.137-10.257 19.248-19.265 14.834-7.38 26.713-5.355 28.778-.851 2.937 6.434-6.346 18.394-21.768 20.116-5.873.663-8.961-1.608-9.738-2.46-.814-.89-.928-.927-1.231-.757-.493.265-.19 1.06 0 1.533.454 1.192 2.349 3.312 5.57 4.372 2.822.927 9.719 1.438 18.055-1.78 9.34-3.614 16.633-13.644 14.493-22.027-2.18-8.535-16.35-11.336-29.744-6.586-7.977 2.839-16.616 7.267-22.83 13.077C.78 34.455-.395 40.473.098 42.97c1.724 8.914 14.02 14.724 18.945 19.02-.246.132-.474.264-.682.378-2.463 1.211-11.84 6.112-14.19 11.298-2.652 5.866.417 10.086 2.463 10.654 6.328 1.76 12.807-1.4 16.312-6.605 3.486-5.204 3.069-11.96 1.458-15.044l-.056-.114 1.932-1.135c1.25-.739 2.482-1.42 3.562-2.006-.606 1.646-1.042 3.595-1.27 6.434-.265 3.33 1.1 7.645 2.9 9.349.795.738 1.742.757 2.33.757 2.083 0 3.03-1.723 4.073-3.785 1.288-2.517 2.425-5.432 2.425-5.432s-1.421 7.892 2.463 7.892c1.42 0 2.841-1.836 3.486-2.782v.019s.037-.057.113-.19c.152-.227.227-.359.227-.359v-.038c.569-.984 1.838-3.236 3.733-6.964 2.444-4.807 4.793-10.825 4.793-10.825s.227 1.476.928 3.899c.417 1.438 1.326 3.009 2.027 4.541-.568.795-.909 1.25-.909 1.25l.019.019a53.87 53.87 0 0 1-1.497 1.892c-1.932 2.309-4.243 4.94-4.547 5.696-.36.89-.284 1.552.417 2.082.512.378 1.421.454 2.387.378 1.743-.113 2.956-.548 3.562-.813.947-.341 2.027-.852 3.07-1.609 1.894-1.4 3.05-3.387 2.936-6.037-.057-1.457-.53-2.895-1.118-4.258.17-.246.34-.492.511-.757 2.994-4.371 5.305-9.178 5.305-9.178s.227 1.476.928 3.898c.36 1.23 1.08 2.574 1.724 3.899-2.803 2.29-4.565 4.939-5.172 6.68-1.117 3.217-.246 4.674 1.402 5.015.74.151 1.8-.19 2.596-.53.985-.322 2.178-.87 3.277-1.684 1.895-1.4 3.714-3.35 3.619-5.98-.057-1.212-.379-2.404-.815-3.54 2.387-.983 5.475-1.551 9.397-1.078 8.43.984 10.098 6.245 9.776 8.44-.322 2.196-2.084 3.407-2.671 3.785-.588.36-.777.492-.72.757.076.398.34.379.852.303.701-.113 4.433-1.798 4.585-5.848.227-5.204-4.717-10.881-13.489-10.824Zm-65.02 21.896c-2.785 3.047-6.707 4.201-8.374 3.217-1.8-1.04-1.099-5.525 2.33-8.762 2.084-1.968 4.793-3.784 6.574-4.901.398-.246 1.004-.606 1.724-1.04.114-.077.19-.114.19-.114.132-.076.284-.17.435-.265 1.27 4.617.057 8.667-2.88 11.865ZM38.84 61.952c-.966 2.366-3.012 8.44-4.244 8.1-1.06-.284-1.705-4.882-.208-9.424.758-2.29 2.368-5.015 3.315-6.075 1.535-1.703 3.202-2.27 3.619-1.57.492.908-1.876 7.493-2.482 8.97Zm16.804 8.024c-.416.209-.795.36-.966.246-.133-.075.17-.36.17-.36s2.104-2.251 2.937-3.292c.474-.606 1.042-1.306 1.648-2.1v.227c0 2.725-2.614 4.541-3.789 5.28Zm12.959-2.952c-.303-.227-.265-.927.758-3.122.398-.87 1.307-2.328 2.88-3.71.189.568.303 1.117.284 1.628-.02 3.406-2.444 4.674-3.922 5.204Z"/><defs><linearGradient id="a" x1="0" x2="89.077" y1="84.811" y2="22.184" gradientUnits="userSpaceOnUse"><stop offset=".008" stop-color="#5C03BC"/><stop offset=".531" stop-color="#E536AB"/><stop offset=".899" stop-color="#F4E5F0"/></linearGradient></defs></svg>
